X:1839
M:3/4
L:1/8
K:Am clef=treble-8
|:A2 ed e2-|e2 dc d2-|d2 cB AG|AB c4|E2 c4|D2 B4|cB AG ED|EF ED EF|
E6|z2 BA B2|z2 cB AG|AB c4|E2 c4|D2 dc B2-|B2 e2 d2|cd cB AG:|
|:A6-|A6|z2 ABcd|e6|f6|B2 c2 d2|e2 E2 c2-|c2 BA G2|
A2 F3 A|Bc d4|.e2 ABcd|e6|fg f4|ef e4|d2 c2 B2|A6:|
(:musicend:)

(:music:)
